X:233
T:Reel 233
M:4/4
K:Dmaj
L:1/8
FG|A2FD ECA,G|A2FD G2FG|AFGE FDEC|ABcA G2FE|F<FEF ECA,G|F2FA G2FG|AFGE FDEC|DB,A,C D2|AB|AFdB cFdF|AFdF F2EF|AdBG FdBd|EFGA B2AB|ABcd ecdB|AFDF G2FG|AFGA BGED|CDB,C D2|
